!!!!SEGMENT: pl-kozmzk--mzk-m-199_janicki-mikolaj--rondo-z-krakowiaka.krn
!!!cenid: 18xx:2957
!!!COM: Janicki, Mikołaj
!!!COM-rismID: pe41009558
!!!CDT: <1805->1844
!!!CNT: Polish
!!!OTL: Rondo z Krakowiaka
!!!PDT: 1816
!!!AGN: Secular; Krakowiak
!!!SMS-siglum: PL-KOZmzk
!!!SMS-shelfmark: mzk/m/199
!!!SMS-shelfwork: W
!!!SMS-variant:
!!!SMS-altvar:
!!!NIFC-rismSourceID: 1001025499
!!!NIFC-rismChildID: 1001025499
!!!NIFC-islandoraID: pl-kozmzk:3161
!!!URL-pdf-islandora: https://repozytorium.nifc.pl/islandora/object/pl-kozmzk%3A3161/datastream/PDF/view
!!!URL-scan: https://polish.musicsources.pl/pl/lokalizacje/galeria/rekopisy/455 @EN{Scan on Polish Music Sources Website} @PL{Skany w portalu Dziedzictwo Muzyki Polskiej w otwartym dostępie}
!!!ONB-nifc:
!!!OMD: Allegretto
!!!AIN: 1 empty
!!!key:
**kern	**kern	**dynam
*part1	*part1	*part1
*staff2	*staff1	*
*Iempty	*Iempty	*
*I"	*I"	*
*>[A,B,A,C,D,E]	*>[A,B,A,C,D,E]	*
*>A	*>A	*
*clefF4	*clefG2	*
*k[f#]	*k[f#]	*
*G:	*G:	*
*M2/4	*M2/4	*
=1	=1	=1
!!LO:TX:t=RONDO
8BL 8G\	8g\L	p
!	!LO:TX:t=P:problem=obiegnik przekreślony	!
8d\J	8gs$sS\J	.
*rep	*	*
8BL 8G\	8b\L	.
8d\J	8cc\J	.
*Xrep	*	*
=2	=2	=2
8BL 8G\	8dd\L	.
!	!LO:TURN:facc	!
8d\J	8ddsSSs\J	.
*rep	*	*
8BL 8G\	8ee\L	.
8d\J	8dd\J	.
*Xrep	*	*
=3	=3	=3
8BL 8G\	8dd\L	.
8d\J	8cc#X\J	.
*rep	*	*
8BL 8G\	8ee\L	.
8d\J	8dd\J	.
*Xrep	*	*
=4	=4	=4
8BL 8G\	8dd\L	.
8d\J	8cc#X\J	.
*rep	*	*
8BL 8G\	8ee\L	.
8d\J	8dd\J	.
*Xrep	*	*
=5	=5	=5
8cL 8A\	8dd\L	.
.	8qee/	.
8d\J	8dd\J	.
8AL 8D\	8.ccn\L	.
8d\J	.	.
.	16a\Jk	.
=6	=6	=6
8BL 8G\	8g/	.
8d\J	4b/	.
*rep	*	*
8BL 8G\	.	.
8d\J	16b/LL	.
.	16cc/JJ	.
*Xrep	*	*
=7	=7	=7
8cL 8A\	8dd\L	.
.	8qee/	.
8d\J	8dd\J	.
8AL 8D\	8.cc\L	.
8d\J	.	.
.	16a\Jk	.
=8	=8	=8
8BL 8G\	(8a/L	.
8d\J	8g/J)	.
4B 4G\	4g/	.
=9	=9	=9
!	!	!
8GG/L	8gg\L	f
!	!LO:TX:t=P:problem=obiegnik przekreślony	!
8GJ 8D 8BB/	8ggs$sS\J	.
8GG/L	8bb|>L 8gg\	.
8G/J	8ccc|>J 8aa\	.
=10	=10	=10
8GG/L	8ddd|>L 8bb\	.
8G/J	8ccc#X|>J 8aa#X\	.
8GG/L	(8eeeL 8cccn\	.
8GJ 8D 8BB/	8dddJ 8bb\)	.
!!LO:LB:g=original
=11	=11	=11
8GG/L	8ddd|>L 8bb\	.
8G/J	8ccc#X|>J 8aa#X\	.
8GG/L	(8eeeL 8cccn\	.
8GJ 8D 8BB/	8dddJ 8bb\)	.
=12	=12	=12
8GG/L	8ddd|>L 8bb\	.
8G/J	8ccc#X|>J 8aa#X\	.
8GG/L	(8eeeL 8cccn\	.
8GJ 8D 8BB/	8dddJ 8bb\)	.
=13	=13	=13
8DD/L	8dddL 8bb\	.
.	8qeee/	.
8D/J	8dddJ 8bb\	.
8DD/L	8.cccL 8.aa\	.
8DJ 8AA 8FF#/	.	.
.	16aaJk 16ff#\	.
=14	=14	=14
8GG/L	8gg|>\	.
8GJ 8D 8BB/	4bb 4gg\	.
8GG/L	.	.
8GJ 8D 8BB/	(16bbLL 16gg\	.
.	16cccJJ 16aa\)	.
=15	=15	=15
8DD/L	8dddL 8bb\	.
8D/J	8dddJ 8bb\	.
8DD/L	8.cccL 8.aa\	.
8DJ 8AA 8FF#/	.	.
.	16aaJk 16ff#\	.
=16	=16	=16
8G\L	8.aaL 8.cc\	.
8D\J	.	.
.	16ggJk 16b\	.
!	!	!
!	!LO:TX:a:t=fine.	!
4GG/	4gg 4b\	.
==17;	==17;	==17
*>B	*>B	*
*clefG2	*	*
!	!LO:TX:b:t=dol&colon;	!
8gL 8e/	8aa\L	.
.	8qbb/	.
8A/J	8aa\J	.
*rep	*	*
8gL 8e/	8.gg\L	.
8A/J	.	.
.	16ee\Jk	.
*Xrep	*	*
=18	=18	=18
8f#L 8d/	8dd\	.
8A/J	4ff#\	.
*rep	*	*
8f#L 8d/	.	.
8A/J	(16ee\LL	.
.	16dd\JJ)	.
*Xrep	*	*
=19	=19	=19
8gL 8e/	(16dd\LL	.
.	16cc#X\	.
8A/J	16b\	.
.	16a\JJ)	.
*rep	*	*
8gL 8e/	(16g#X\LL	.
.	16a\	.
8A/J	16b\	.
.	16cc#\JJ)	.
*Xrep	*	*
!!LO:LB:g=original
=20	=20	=20
8f#L 8d/	(16dd\LL	.
.	16ee\	.
8A/J	16ff#\	.
.	16ggn\JJ)	.
*rep	*	*
8f#L 8d/	(16aa\LL	.
.	16gg#X\	.
8A/J	16bb\	.
.	16aa\JJ)	.
*Xrep	*	*
=21	=21	=21
8gL 8e/	(16aa\LL	.
.	16bb\	.
8A/J	16aa\	.
.	16gg#X\JJ)	.
*rep	*	*
8gL 8e/	(16aa\LL	.
.	16bb\	.
8A/J	16ccc#X\	.
.	16aa\JJ)	.
*Xrep	*	*
=22	=22	=22
8f#L 8d/	8ddd|>\	.
8A/J	4fff#^<\	.
*rep	*	*
8f#L 8d/	.	.
8A/J	(16eee\LL	.
.	16ddd\JJ)	.
*Xrep	*	*
=23	=23	=23
8gL 8e/	16ddd\LL	.
.	16ccc#X\	.
8A/J	16bb\	.
.	16aa\JJ	.
*rep	*	*
8gL 8e/	16gg#X\LL	.
.	16aa\	.
8A/J	16bb\	.
.	16ccc#X\JJ	.
*Xrep	*	*
=24	=24	=24
8f#L 8d/	4ddd\	.
8a/J	.	.
8f#L 8cn/	4r	.
8a/J	.	.
=25	=25	=25
16B/LL	8.ddd#X\L	p
16a/	.	.
16f#/	.	.
16a/JJ	16cccn\Jk	.
*rep	*	*
16B/LL	8bb\L	.
16a/	.	.
16f#/	8aa\J	.
16a/JJ	.	.
*Xrep	*	*
=26	=26	=26
16e/LL	8ee|>\	.
16b/	.	.
16g/	4gg\	.
16b/JJ	.	.
*rep	*	*
16e/LL	.	.
16b/	.	.
16g/	(16ff#\LL	.
16b/JJ	16ee\JJ)	.
*Xrep	*	*
=27	=27	=27
!	!	!
.	8qee/	sf
16e/LL	8.eee\L	.
16ddn/	.	.
16b/	.	.
16dd/JJ	16eee\Jk	.
*rep	*	*
16e/LL	8dddn\L	.
16dd/	.	.
16b/	8bb\J	.
16dd/JJ	.	.
*Xrep	*	*
=28	=28	=28
16e/LL	8.ddd\L	.
16cc/	.	.
16a/	.	.
16cc/JJ	16ccc\Jk	.
*rep	*	*
16e/LL	4ccc\	.
16cc/	.	.
16a/	.	.
16cc/JJ	.	.
*Xrep	*	*
=29	=29	=29
!	!	!
.	8qdd/	sf
16d/LL	8.ddd\L	.
16cc/	.	.
16a/	.	.
16cc/JJ	16ddd\Jk	.
*rep	*	*
16d/LL	8ccc\L	.
16cc/	.	.
16a/	8aa\J	.
16cc/JJ	.	.
*Xrep	*	*
!!LO:LB:g=original
=30	=30	=30
16d/LL	8gg\	.
16b/	.	.
16g/	(4bb^<\	.
16b/JJ	.	.
*rep	*	*
16d/LL	.	.
16b/	.	.
16g/	16aa\LL	.
16b/JJ	16gg\JJ)	.
*Xrep	*	*
=31	=31	=31
8gL 8e/	(16gg\LL	.
.	16ff#\	.
!	!	!
8A/J	16ee\	.
.	16dd\JJ)	.
*rep	*	*
8gL 8e/	(16cc#X\LL	.
.	16dd\	.
!	!	!
8A/J	16ee\	.
.	16cc#\JJ)	.
*Xrep	*	*
=32	=32	=32
8f#|<L 8d/	16dd\LL	f
.	16ee\	.
8a|<J 8f#/	16ff#\	.
.	16gg\JJ	.
*rep	*	*
8f#|<L 8d/	16aa\LL	.
.	16bb\	.
8a|<J 8f#/	16ccc#X\	.
.	16ddd\JJ	.
*Xrep	*	*
=33	=33	=33
8e|<L 8A/	16ddd\LL	.
.	16ccc#X\	.
8g|<J 8e/	16bb\	.
.	16aa\JJ	.
*rep	*	*
8e|<L 8A/	16gg#X\LL	.
.	16aa\	.
8g|<J 8e/	16ggn\	.
.	16ee\JJ	.
*Xrep	*	*
=34	=34	=34
8f#|<L 8d/	16dd\LL	.
.	16ee\	.
8a|<J 8f#/	16ff#\	.
.	16gg\JJ	.
*rep	*	*
8f#|<L 8d/	16aa\LL	.
.	16bb\	.
8a|<J 8f#/	16ccc#X\	.
.	16ddd\JJ	.
*Xrep	*	*
=35	=35	=35
8e|<L 8A/	16ddd\LL	.
.	16ccc#X\	.
8g|<J 8e/	16bb\	.
.	16aa\JJ	.
*rep	*	*
8e|<L 8A/	16gg#X\LL	.
.	16aa\	.
8g|<J 8e/	16ggn\	.
.	16ee\JJ	.
*Xrep	*	*
=36	=36	=36
8f#|<L 8d/	4dd\	.
8a|<J 8f#/	.	.
8f#|< 8d/	8r	.
8r	16dd\LL	.
.	16eeJJ 16cc#X\	.
*clefF4	*	*
=37	=37	=37
!	!LO:TX:t=P:problem=smorzando (?)	!
!	!LO:TX:b:B:t=sm	!
8D\L	8ff#|>L 8dd\	.
8d\J	(16ff#L 16dd\	.
.	16ggJJ 16ee\)	.
*rep	*	*
8D\L	8aa>|L 8ff#\	.
8d\J	(16aaL 16ff#\	.
.	16bbJJ 16gg\)	.
*Xrep	*	*
=38	=38	=38
!	!	!
16D\LL	4cccn 4aa\	<
16d\	.	.
16c#X\	.	.
16d\JJ	.	.
8D\	8r	.
8r	(16dd\LL	.
.	16eeJJ 16cc#X\)	.
=39	=39	=39
!	!LO:TX:b:B:t=sm	!
8D\L	8ff#|>L 8dd\	.
8d\J	(16ff#L 16dd\	.
.	16ggJJ 16ee\)	.
*rep	*	*
8D\L	8aa|>L 8ff#\	.
8d\J	(16aaL 16ff#\	.
.	16bbJJ 16gg\)	.
*Xrep	*	*
!!LO:LB:g=original
=40	=40	=40
!	!	!
16D\LL	4.cccn 4.aa\	<
16d\	.	.
16c#X\	.	.
16d\JJ	.	.
8D\L	.	.
8d\J	8bb 8gg#X\	.
=41	=41	=41
8D\L	8cccnL 8aa\	.
8d\J	8bbJ 8gg#X\	.
*rep	*	*
8D\L	8cccL 8aa\	.
8d\J	8bbJ 8gg#\	.
*Xrep	*	*
=42	=42	=42
16r	8ccc 8aa\	.
16D\LL	.	f
16E\	8r	.
16F#\JJ	.	.
16G\LL	4r	.
16A\	.	.
16B\	.	.
16c#X\JJ	.	.
=43	=43	=43
8d\	8r	.
8r	8bb 8gg#X\	p
4r	8cccnL 8aa\	.
.	8bbJ 8gg#\	.
=44	=44	=44
16r	8ccc 8aa\	.
16D\LL	.	f
16E\	8r	.
16F#\JJ	.	.
16G\LL	4r	.
16A\	.	.
16B\	.	.
16c#X\JJ	.	.
=45	=45	=45
8d\	8r	.
8r	8bb 8gg#X\	p
4r	8cccnL 8aa\	.
.	8bbJ 8gg#\	.
=46	=46	=46
8r	8cccL 8aa\	f
8dL 8D\	8ccc 8aa 8ff# 8dd\	.
8A 8AA\	8ccc 8aa 8ff# 8dd\	.
8F#J 8FF#\	8cccJ 8aa 8ff# 8dd\	.
=47	=47	=47
8DL 8DD/	8cccL 8aa 8ff# 8dd\	.
8A 8AA/	8ccc 8aa 8ff# 8dd\	.
8F# 8FF#/	8ccc 8aa 8ff# 8dd\	.
8E-XJ 8EE-X/	8cccJ 8aa 8ff# 8ee-X;\	.
=48	=48	=48
!	!LO:TX:b:t=Rondo da Capo\n ad fine	!
2D 2DD/	2ccc 2aa 2ff# 2dd;\	.
!!LO:PB:g=original
*kcancel	*kcancel	*
=49	=49	=49
*>C	*>C	*
*k[b-e-]	*k[b-e-]	*
.	16qqdd/LL	fp
.	16qqgg/	.
!	!LO:TX:a:B:t=Minore.	!
.	16qqbb-/JJ	.
8B-L 8G\	8.ddd\L	.
8d\J	.	.
.	16ccc\Jk	.
*rep	*	*
8B-L 8G\	16bb-\LL	.
.	16aa\	.
8d\J	16gg\	.
.	16ff#X\JJ	.
*Xrep	*	*
=50	=50	=50
8AL 8D\	16ee-\LL	.
.	16dd\	.
8c\J	16cc\	.
.	16b-\JJ	.
*rep	*	*
8AL 8D\	16a/LL	.
.	16g/	.
8c\J	16f#X/	.
.	16a/JJ	.
*Xrep	*	*
=51	=51	=51
8B-L 8G\	16g/LL	.
.	16a/	.
8d\J	16b-/	.
.	16cc/JJ	.
*rep	*	*
8B-L 8G\	16dd\LL	.
.	16een\	.
8d\J	16ff#X\	.
.	16gg\JJ	.
*Xrep	*	*
=52	=52	=52
8cL 8A\	16ff#X\LL	.
.	16dd\	.
8d\J	16aa\	.
.	16ee-X\JJ	.
8cL 8F#X\	16dd\LL	.
.	16cc\	.
8d\J	16b-\	.
.	16a\JJ	.
=53	=53	=53
.	16qqdd/LL	fp
.	16qqgg/	.
.	16qqbb-/JJ	.
8B-L 8G\	8.ddd\L	.
8d\J	.	.
.	16ccc\Jk	.
*rep	*	*
8B-L 8G\	16bb-\LL	.
.	16aa\	.
8d\J	16gg\	.
.	16ff#X\JJ	.
*Xrep	*	*
=54	=54	=54
8AL 8D\	16ee-\LL	.
.	16dd\	.
8c\J	16cc\	.
.	16b-\JJ	.
*rep	*	*
8AL 8D\	16a/LL	.
.	16g/	.
8c\J	16f#X/	.
.	16a/JJ	.
*Xrep	*	*
=55	=55	=55
8B-L 8G\	16g/LL	.
.	16a/	.
8d\J	16b-/	.
.	16cc/JJ	.
8cL 8F#X\	16dd/LL	.
.	16ee-/	.
8d\J	16cc/	.
.	16a/JJ	.
!!LO:LB:g=original
=56	=56	=56
8B-L 8G\	16g\LL	.
.	16b-\	.
8d\J	16dd\	.
.	16gg\JJ	.
4B- 4G\	4g/	.
=57	=57	=57
8e-L 8c\	16ffn\LL	.
.	16eee-\	.
8Fn\J	16ccc\	.
.	16aa\JJ	<
*rep	*	*
8e-L 8c\	16ff\LL	.
.	16ee-\	.
8F\J	16cc\	.
.	16a\JJ	.
*Xrep	*	*
=58	=58	=58
8e-L 8c\	16f|</LL	.
.	(16f/	.
8F\J	16g/	.
.	16f/JJ)	.
*rep	*	*
8e-L 8c\	16a-X/LL	.
.	16f/	.
8F\J	16an/	.
.	16f/JJ	.
*Xrep	*	*
=59	=59	=59
8BB-\L	16b-LL 16d/	>
.	16f/	.
8B-\J	16b- 16d/	.
.	16f/JJ	.
*rep	*	*
8BB-\L	16ddLL 16b-/	.
.	16f/	.
8B-\J	16ee- 16cc/	.
.	16f/JJ	.
*Xrep	*	*
=60	=60	=60
8BB-\L	16ffLL 16dd/	.
.	16f/	.
8B-\J	16een 16cc#X/	.
.	16f/JJ	.
*rep	*	*
8BB-\L	16ggLL 16ee-X/	.
.	16f/	.
8B-\J	16ff 16dd/	.
.	16f/JJ	.
*Xrep	*	*
=61	=61	=61
8e-L 8c\	16ff\LL	.
.	16eee-\	.
8F\J	16ccc\	.
.	16aa\JJ	.
*rep	*	*
8e-L 8c\	16ff\LL	.
.	16ee-\	.
8F\J	16cc\	.
.	16a\JJ	.
*Xrep	*	*
=62	=62	=62
8e-L 8c\	16f/LL	.
.	16f/	.
8F\J	16g/	.
.	16f/JJ	.
*rep	*	*
8e-L 8c\	16a-X/LL	.
.	16f/	.
8F\J	16an/	.
.	16f/JJ	.
*Xrep	*	*
!!LO:LB:g=original
=63	=63	=63
8dL 8B-\	16b-/LL	.
.	16f/	<
8F\J	16cc 16a/	.
.	16f/JJ	.
*rep	*	*
8dL 8B-\	16ddLL 16b-/	.
.	16f/	.
8F\J	16ee- 16cc/	.
.	16f/JJ	.
*Xrep	*	*
=64	=64	=64
8dL 8B-\	16ffLL 16dd\	.
.	16b-\	.
8F\J	16bb- 16ff\	.
.	16dd\JJ	.
*rep	*	*
8dL 8B-\	16dddLL 16bb-\	.
.	16ff\	.
8F\J	16fff 16ddd\	[
.	16bb-\JJ	.
*Xrep	*	*
=65	=65	=65
.	8qqgg/	.
8EE-/L	(16ggg\LL	f
.	16eee-\	.
8E-/J	16bb-\	.
.	16gg\JJ)	.
*rep	*	*
8EE-/L	(16ee-/LL	.
.	16b-/	.
8E-/J	16g/	.
.	16e-/JJ)	.
*Xrep	*	*
=66	=66	=66
8DD/L	(16B-/LL	.
.	16d/	.
8D/J	16f/	.
.	16b-/JJ)	.
*rep	*	*
8DD/L	(16dd\LL	.
.	16ff\	.
8D/J	16bb-\	.
.	16ddd\JJ)	.
*Xrep	*	*
=67	=67	=67
!	!LO:TX:b:t=dol.	!
16FF/LL	8fffL 8ddd\	.
16F/	.	.
16En/	8fffJ 8ddd\	.
16F/JJ	.	.
!	!	!LO:HP:t=dim.
8FF/L	8.eee-L 8.ccc\	>
8F/J	.	.
.	16cccJk 16aa\	.
=68	=68	=68
8DL 8BB-/	(8eee-L 8ccc\	.
8F/J	8dddJ 8bb-\)	.
*rep	*	*
8DL 8BB-/	4ddd 4bb-\	.
8F/J	.	.
*Xrep	*	*
=69	=69	=69
.	8qqgg/	.
8EE-/L	(16ggg\LL	f
.	16eee-\	.
8E-/J	16bb-\	.
.	16gg\JJ)	.
*rep	*	*
8EE-/L	(16ee-/LL	.
.	16b-/	.
8E-/J	16g/	.
.	16e-/JJ)	.
*Xrep	*	*
=70	=70	=70
8DD/L	(16B-/LL	.
.	16d/	.
8D/J	16f/	.
.	16b-/JJ)	.
*rep	*	*
8DD/L	(16dd\LL	.
.	16ff\	.
8D/J	16bb-\	.
.	16ddd\JJ)	.
*Xrep	*	*
!!LO:LB:g=original
=71	=71	=71
8e-L 8c\	16ff\LL	.
!	!LO:TX:b:B:t=sm.	!
.	(16fff\	.
8F\J	16eeen\	.
.	16eee-X\JJ	.
*rep	*	*
8e-L 8c\	16ddd\LL	.
.	16ccc\	.
8F\J	16bb-\	.
.	16aa\JJ)	.
*Xrep	*	*
=72	=72	=72
.	8qccc/	.
8dL 8B-\	(16bb-\LL	.
.	16aa\	.
8F\J	16bb-\	.
.	16ccc\JJ)	.
*rep	*	*
8dL 8B-\	(16ddd\LL	.
.	16bb-\	.
8F\J	16ff\	.
.	16dd\JJ)	.
*Xrep	*	*
=73	=73	=73
8e-L 8c\	16ff\LL	.
.	(16fff\	.
8F\J	16eeen\	.
.	16eee-X\JJ	.
*rep	*	*
8e-L 8c\	16ddd\LL	.
.	16ccc\	.
8F\J	16bb-\	.
.	16aa\JJ)	.
*Xrep	*	*
=74	=74	=74
!LO:TX:t=P:problem=mixed beam	!	!
.	8qccc/	f
8BB-/L	16.bb-\LL	.
.	32aa\K	.
8B-\J	16.bb-\	.
.	32ccc\JJk	.
!LO:TX:t=P:problem=mixed beam	!	!
8AA/L	16.ddd\LL	.
.	32ccc\K	.
8A\J	16.bb-\	.
.	32aa\JJk	.
=75	=75	=75
!LO:TX:t=P:problem=mixed beam	!	!
8GG/L	16.gg\LL	.
.	32ff#X\K	.
8G\J	16.gg\	.
.	32aa\JJk	.
!LO:TX:t=P:problem=mixed beam	!	!
8FFn/L	16.bb-\LL	.
.	32aa\K	.
8F\J	16.gg\	.
.	32ffn\JJk	.
=76	=76	=76
!LO:TX:t=P:problem=mixed beam	!	!
8EE-/L	16.ee-\LL	.
.	32dd\K	.
8E-\J	16.ee-\	.
.	32ff\JJk	.
!LO:TX:t=P:problem=mixed beam	!	!
8DD/L	16.gg\LL	.
.	32ff\K	.
8D\J	16.ee-\	.
.	32dd\JJk	.
=77	=77	=77
!LO:TX:t=P:problem=mixed beam	!	!
8CC/L	16.cc\LL	.
.	32bn\K	.
8C\J	16.cc\	.
.	32dd\JJk	.
8BBB-X/L	16.ee-\LL	.
.	32dd\K	.
8BB-/J	16.cc\	.
.	32b\JJk	.
=78	=78	=78
8AAA/L	16.a/LL	.
.	32g/K	.
8AA/J	16.a/	.
.	32b-/JJk	.
8GGG/L	16.cc/LL	.
.	32b-/K	.
8GG/J	16.a/	.
.	32g/JJk	.
!!LO:LB:g=original
=79	=79	=79
8FFF#X/L	16r	.
.	(16f#X/LL	.
8FF#y/J	16a/	.
.	16cc/JJ)	.
*rep	*	*
8FFF#/L	(16ee-\LL	.
.	16ff#X\	.
8FF#/J	16aa\	.
.	16ccc\JJ)	.
*Xrep	*	*
=80	=80	=80
8GGG/L	16r	.
.	(16g/LL	.
8GG/J	16b-/	.
.	16dd/JJ	.
*rep	*	*
8GGG/L	16gg\LL	.
.	16bb-\	.
8GG/J	16ddd\	.
.	16ggg\JJ)	.
*Xrep	*	*
=81	=81	=81
8FFF#X/L	16r	.
.	(16fff#X\LL	.
8FF#y/J	16eee-\	.
.	16ccc\JJ	.
*rep	*	*
8FFF#/L	16aa\LL	.
.	16ff#X\	.
8FF#/J	16ee-\	.
.	16cc\JJ)	.
*Xrep	*	*
=82	=82	=82
8GGG/L	16r	.
.	(>16gg\LL	.
8GG/J	16dd\	.
.	16b-\JJ	.
*rep	*	*
8GGG/L	16g/LL	.
.	16d/	.
8GG/J	16B-</	.
.	16G</JJ)	.
*Xrep	*	*
=83	=83	=83
8CC#X\L	16r	.
.	(16En</LL	.
8C#X\J	16G</	.
.	16B-</JJ	.
*rep	*	*
8CC#\L	16c#X/LL	.
.	16en/	.
8C#\J	16g/	.
.	16b-/JJ)	.
*Xrep	*	*
=84	=84	=84
8DD/L	16r	.
.	(16d/LL	.
8D/J	16f#X/	.
.	16a/JJ	.
*rep	*	*
8DD/L	16dd\LL	.
.	16ff#X\	.
8D/J	16aa\	.
.	16ddd\JJ)	.
*Xrep	*	*
=85	=85	=85
8CC#X/L	16r	.
.	(16en/LL	.
8C#X/J	16g/	.
.	16b-/JJ	.
*rep	*	*
8CC#/L	16cc#X\LL	.
.	16een\	.
!	!LO:TUP:problem=brak klamry	!
!	!LO:TUP:a	!
8C#/J	24gg\	.
.	24bb-\	.
.	24ccc#X\JJ)	.
*Xrep	*	*
=86	=86	=86
2D 2AA 2FF#X 2DD;/	2ddd 2aa 2ff#X 2dd;\	.
!!LO:PB:g=original
=87	=87	=87
*>D	*>D	*
*k[f#]	*k[f#]	*
!	!LO:TX:a:B:t=Majore	!
8BL 8G\	8g\L	p
!	!LO:TX:t=P:problem=obiegnik przekreślony	!
8d\J	8gs$sS\J	.
*rep	*	*
8BL 8G\	8b\L	.
8d\J	8cc\J	.
*Xrep	*	*
=88	=88	=88
8BL 8G\	8dd\L	.
!	!LO:TURN:facc	!
!	!LO:TX:t=P:problem=obiegnik przekreślony	!
8d\J	8dds$sS\J	.
*rep	*	*
8BL 8G\	8ee\L	.
8d\J	8dd\J	.
*Xrep	*	*
=89	=89	=89
8BL 8G\	8dd\L	.
8d\J	8cc#X\J	.
*rep	*	*
8BL 8G\	8ee\L	.
8d\J	8dd\J	.
*Xrep	*	*
=90	=90	=90
8BL 8G\	8dd\L	.
8d\J	8cc#X\J	.
*rep	*	*
8BL 8G\	8ee\L	.
8d\J	8dd\J	.
*Xrep	*	*
=91	=91	=91
8cL 8A\	8dd\L	.
.	8qee/	.
8d\J	8dd\J	.
8AL 8D\	8.ccn\L	.
8d\J	.	.
.	16a\Jk	.
=92	=92	=92
8BL 8G\	8g/	.
8d\J	4b/	.
*rep	*	*
8BL 8G\	.	.
8d\J	16b\LL	.
.	16cc\JJ	.
*Xrep	*	*
=93	=93	=93
8cL 8A\	8dd\L	.
.	8qee/	.
8d\J	8dd\J	.
8AL 8D\	8.cc\L	.
8d\J	.	.
.	16a\Jk	.
=94	=94	=94
8BL 8G\	(8a/L	.
8d\J	8g/J)	.
4B 4G\	4g/	.
=95	=95	=95
8GG/L	8gg\L	f
!	!LO:TX:t=P:problem=obiegnik przekreślony	!
8GJ 8D 8BB/	8ggs$sS\J	.
8GG/L	8bbL 8gg\	.
8G/J	8cccJ 8aa\	.
=96	=96	=96
8GG/L	8ddd|>L 8bb\	.
8G/J	8ccc#X|>J 8aa#X\	.
8GG/L	(8eeeL 8cccn^<\	.
8GJ 8D 8BB/	8dddJ 8bb\)	.
!!LO:LB:g=original
=97	=97	=97
8GG/L	8ddd|>L 8bb\	.
8G/J	8ccc#X|>J 8aa#X\	.
8GG/L	(8eeeL 8cccn^<\	.
8GJ 8D 8BB/	8dddJ 8bb\)	.
=98	=98	=98
8GG/L	8ddd|>L 8bb\	.
8G/J	8ccc#X|>J 8aa#X\	.
8GG/L	(8eeeL 8cccn^<\	.
8GJ 8D 8BB/	8dddJ 8bb\)	.
=99	=99	=99
8DD/L	8dddL 8bb\	.
.	8qeee/	.
8D/J	8dddJ 8bb\	.
8DD/L	8.cccL 8.aa\	.
8DJ 8AA 8FF#/	.	.
.	16aaJk 16ff#\	.
=100	=100	=100
8GG/L	8gg|>\	.
8GJ 8D 8BB/	4bb 4gg\	.
*rep	*	*
8GG/L	.	.
8GJ 8D 8BB/	(16bbLL 16gg\	.
.	16cccJJ 16aa\)	.
*Xrep	*	*
=101	=101	=101
8DD/L	8dddL 8bb\	.
8D/J	8dddJ 8bb\	.
8DD/L	8.cccL 8.aa\	.
8DJ 8AA 8FF#/	.	.
.	16aaJk 16ff#\	.
=102	=102	=102
8G\L	8.aaL 8.cc\	.
8D\J	.	.
.	16ggJk 16b\	.
4GG/	4gg 4b\	.
*clefG2	*	*
==103	==103	==103
*>E	*>E	*
8aL 8f# 8d#X/	8bb\L	p
!	!LO:TURN:facc	!
8b/J	8bbsSss\J	.
*rep	*	*
!	!LO:TX:b:t=dol	!
8aL 8f# 8d#/	8ccc\L	.
8b/J	8bb\J	.
*Xrep	*	*
=104	=104	=104
8gL 8e/	8bb\	.
8b/J	4eee^<\	.
*rep	*	*
8gL 8e/	.	.
8b/J	16ddd\LL	.
.	16ccc\JJ	.
*Xrep	*	*
*	*clefF4	*
=105	=105	=105
!	!	!LO:HP:t=dim
8aL 8f# 8d#X/	8.B\L	>
8b/J	.	.
.	16B\Jk	.
*rep	*	*
8aL 8f# 8d#/	8.A\L	.
8b/J	.	.
.	16F#\Jk	.
*Xrep	*	*
=106	=106	=106
8gL 8e/	(8A\L	.
8b/J	8G\J)	.
*rep	*	*
8gL 8e/	4G\	.
8b/J	.	.
!!LO:LB:g=original
*Xrep	*	*
*	*clefG2	*
=107	=107	=107
*clefG2	*	*
8gL 8e 8c#X/	8aa\L	.
!	!LO:TURN:facc	!
8a/J	8aasSSs\J	.
*rep	*	*
8gL 8e 8c#/	8bb\L	.
8a/J	8aa\J	.
*Xrep	*	*
=108	=108	=108
8f#L 8d/	8aa\	.
8a/J	4fff#^<\	.
*rep	*	*
8f#L 8d/	.	.
8a/J	(16eee\LL	.
.	16ddd\JJ)	.
*Xrep	*	*
*	*clefF4	*
=109	=109	=109
!	!	!LO:HP:t=dim
8gL 8e 8c#X/	8.A\L	>
8a/J	.	.
.	16A\Jk	.
*rep	*	*
8gL 8e 8c#/	8.G\L	.
8a/J	.	.
.	16C#X\Jk	.
*Xrep	*	*
=110	=110	=110
8f#L 8d/	(8E\L	.
8a/J	8D\J)	.
*rep	*	*
8f#L 8d/	4D\	.
8a/J	.	.
*Xrep	*	*
*clefF4	*	*
=111	=111	=111
*	*clefG2	*
!LO:TX:t=P:problem=mixed beam	!	!
8DD/L	16cccnLL 16aa\	f
.	16dd\	.
8D\J	16ccc 16aa\	.
.	16dd\JJ	.
*rep	*	*
!LO:TX:t=P:problem=mixed beam	!	!
8DD/L	16bbLL 16gg\	.
.	16dd\	.
8D\J	16aa 16ff#\	.
.	16dd\JJ	.
*Xrep	*	*
=112	=112	=112
!LO:TX:t=P:problem=mixed beam	!	!
8GG/L	16bbLL 16gg\	.
.	16dd\	.
8G\J	16ccc 16aa\	.
.	16dd\JJ	.
*rep	*	*
!LO:TX:t=P:problem=mixed beam	!	!
8GG/L	16dddLL 16bb\	.
.	16dd\	.
8G\J	16bb 16gg\	.
.	16dd\JJ	.
*Xrep	*	*
=113	=113	=113
!LO:TX:t=P:problem=mixed beam	!	!
8DD/L	16cccLL 16aa\	.
.	16dd\	.
8D\J	16ccc 16aa\	.
.	16dd\JJ	.
*rep	*	*
!LO:TX:t=P:problem=mixed beam	!	!
8DD/L	16bbLL 16gg\	.
.	16dd\	.
8D\J	16aa 16ff#\	.
.	16dd\JJ	.
*Xrep	*	*
=114	=114	=114
!LO:TX:t=P:problem=mixed beam	!	!
8GG/L	16cccLL 16aa\	.
.	16dd\	.
8G\J	16bb 16gg\	.
.	16dd\JJ	.
*rep	*	*
!LO:TX:t=P:problem=mixed beam	!	!
8GG/L	16aa#XLL 16ff#\	.
.	16dd\	.
8G\J	16bb 16gg\	.
.	16dd\JJ	.
*Xrep	*	*
=115	=115	=115
!LO:TX:t=P:problem=mixed beam	!	!
8CC/L	16ggLL 16ee\	.
.	16g\	.
8C\J	16gg 16ee\	.
.	16g\JJ	.
*rep	*	*
!LO:TX:t=P:problem=mixed beam	!	!
8CC/L	16ff#LL 16dd#X\	.
.	16g\	.
8C\J	16gg 16ee\	.
.	16g\JJ	.
*Xrep	*	*
!!LO:LB:g=original
=116	=116	=116
8CC/L	16aaLL 16ff#/	.
.	16g/	.
8C/J	16gg 16ee/	.
.	16g/JJ	.
*rep	*	*
8CC/L	16ff#LL 16dd/	.
.	16g/	.
8C/J	16ee 16cc/	.
.	16g/JJ	.
*Xrep	*	*
=117	=117	=117
8DD/L	16ddLL 16b/	.
.	16d/	.
8D/J	16b 16g/	.
.	16d/JJ	.
*rep	*	*
8DD/L	16bLL 16g/	.
.	16d/	.
8D/J	16dd 16b/	.
.	16d/JJ	.
*Xrep	*	*
=118	=118	=118
8DD/L	16ddLL 16b/	.
.	16d/	.
8D/J	16cc 16a/	.
.	16d/JJ	.
*rep	*	*
8DD/L	16bLL 16g/	.
.	16d/	.
8D/J	16a 16f#/	.
.	16d/JJ	.
*Xrep	*	*
=119	=119	=119
8GL 8GG/	16ggLL 16b/	p
.	16g/	.
8G 8GG/	16gg 16b/	.
.	16g/JJ	.
8B 8BB/	16ggLL 16b/	.
.	16g/	.
8cJ 8C/	16gg 16b/	.
.	16g/JJ	.
=120	=120	=120
*	*tremolo	*
8dL 8D/	16ggLL 16b/	.
.	16g/	.
8c#X 8C#X/	16gg 16b/	.
.	16g/	.
8e 8E/	16gg 16b/	.
.	16g/	.
8dJ 8D/	16gg 16b/	.
.	16g/JJ	.
=121	=121	=121
8dL 8D/	16ggLL 16b/	.
.	16g/	.
8c#X 8C#X/	16gg 16b/	.
.	16g/	.
8e 8E/	16gg 16b/	.
.	16g/	.
8dJ 8D/	16gg 16b/	.
.	16g/JJ	.
=122	=122	=122
8dL 8D/	16ggLL 16b/	.
.	16g/	.
8c#X 8C#X/	16gg 16b/	.
.	16g/	.
8e 8E/	16gg 16b/	.
.	16g/	.
8dJ 8D/	16gg 16b/	.
.	16g/JJ	.
*	*Xtremolo	*
=123	=123	=123
8DD/L	8.dddL 8.bb\	f
8D/J	.	.
.	16dddJk 16bb\	.
*rep	*	*
8DD/L	8cccn|>L 8aa\	.
8D/J	(16aaL 16ff#\	.
.	16ggJJ 16ee\)	.
*Xrep	*	*
=124	=124	=124
!	!LO:TUP:a:problem=klamra łukowa, numer	!
8DD/L	12ff#L 12dd\	.
.	12ee 12cc\	.
8D/J	.	.
.	12ddJ 12b\	.
*rep	*	*
!	!LO:TUP:b:problem=klamra łukowa, numer	!
8DD/L	12ccL 12a/	.
.	12b 12g/	.
8D/J	.	.
.	12aJ 12f#/	.
*Xrep	*	*
=125	=125	=125
8GL 8GG/	16ggLL 16b/	p
.	16g/	.
8G 8GG/	16gg 16b/	.
.	16g/JJ	.
8B 8BB/	16ggLL 16b/	.
.	16g/	.
8cJ 8C/	16gg 16b/	.
.	16g/JJ	.
!!LO:LB:g=original
=126	=126	=126
*	*tremolo	*
8dL 8D\	16ggLL 16b/	.
.	16g/	.
8c#X 8C#X\	16gg 16b/	.
.	16g/	.
8e 8E\	16gg 16b/	.
.	16g/	.
8dJ 8D\	16gg 16b/	.
.	16g/JJ	.
=127	=127	=127
8dL 8D\	16ggLL 16b/	.
.	16g/	.
8c#X 8C#X\	16gg 16b/	.
.	16g/	.
8e 8E\	16gg 16b/	.
.	16g/	.
8dJ 8D\	16gg 16b/	.
.	16g/JJ	.
=128	=128	=128
8dL 8D\	16ggLL 16b/	.
.	16g/	.
8c#X 8C#X\	16gg 16b/	.
.	16g/	.
8e 8E\	16gg 16b/	.
.	16g/	.
8dJ 8D\	16gg 16b/	.
.	16g/JJ	.
*	*Xtremolo	*
=129	=129	=129
!	!LO:TX:b:t=ritard&colon;	!
8DD#X/L	4ccc 4aa 4ff# 4dd#X\	pp
8D#X/J	.	.
*rep	*	*
8DD#/L	4ccc 4aa 4ff# 4dd#\	.
8D#/J	.	.
*Xrep	*	*
=130	=130	=130
!	!LO:TX:b:t=a Tempo	!
4E|< 4EE;/	4bb 4gg 4ee;\	.
!	!	!LO:DY:t=FF
4C|< 4CC/	4aa|> 4ee 4cc\	ff
=131	=131	=131
4D|< 4DD/	4gg|> 4ddn 4b\	.
4D|<: 4AA: 4FF#: 4DD:/	4f#|<: 4d: 4c: 4A:/	.
=132	=132	=132
4GG|<: 4DD: 4BBB: 4GGG:/	4g|<: 4d: 4B: 4G:/	.
!	!LO:TX:b:B:t=FINE	!
4r;	4r;	.
==	==	==
*-	*-	*-
!!!system-decoration: {(s1,s2)}
!!!RDF**kern: > = above
!!!RDF**kern: < = below
!!!RDF**kern: | = vertical stroke
!!!RDF**dynam: f = "F"
!!!RDF**dynam: sf = "sF"
!!!RDF**dynam: fp = "FP"
!!!RDF**dynam: < = "cres"
!!!RDF**dynam: > = "decresc"
!!!ENC: Katarzyna Serwa
!!!END: 2021-08-13
!!!ENC: Kamil Watkowski
!!!END: 2021-09-09
!!!YEC: Copyright 2022 Narodowy Instytut Fryderyka Chopina (https://polishscores.org)
!!!YEM: License CC-BY-4.0 (https://creativecommons.org/licenses/by/4.0)
